X:1
T:Exultavit cor meum - Schütz
T:#
%%score 1 2 3 4
L:1/8
Q:1/4=180
M:3/2
K:C
V:1 treble nm="Violin I" snm="Vn I"
V:2 treble nm="Violin II" snm="Vn II"
V:3 treble nm="Soprano" snm="S"
V:4 bass nm="Continuo"
V:1
 z12 | z8 | z8 x4 |[Q:1/4=90] z8 | z8 ||[Q:1/4=180] z12 |[M:3/2] z12 | z12 | z12 | z12 | z12 | %11
 z12 || z8 x4 |[Q:1/4=90][Q:1/4=90][Q:1/4=90][Q:1/4=90] z16 | z16 | z16 | z16 | %17
[K:F][K:treble] z16 | z16 | z8"^Sinfonia" FGAB G2 F2 | z8 ABcd B2 A2 | %21
 z8 F/G/A/=B/ c/B/ B/A/4B/4 c2 z2 | G/A/B/c/ d/c/ c/B/4c/4 d2 z2 z c B/c/A/B/ G>A G/A/F/G/ | %23
 EFGA Bcde fgab c'>c B/c/A/B/ | GCEF G4 z FAB c2 d2 | G8 !fermata!A8 ||[M:3/2] x12 | %27
[M:3/2][Q:1/4=180][Q:1/4=180][Q:1/4=180][Q:1/4=180] z12 | z12 | z12 | z12 | z12 | z12 | z12 | z12 | %35
 z12 |[M:3/2] z12 | z12 | z12 | z12 | z12 | z12 | z12 | z12 | z12 |[M:3/2] z8 z4 | z8 z4 | z8 z4 | %48
 z8 z4 | z8 z4 | z8 z4 | z4"^Sinfonia" c4 f4 | d6 d2 d2 d2 | e12 | f8 z4 | z4 d4 g4 | e6 e2 e2 e2 | %57
 ^f12 | g8 z4 | z4 e4 a4 | ^f6 f2 f2 f2 | g4 ^f4 g4 | e4 d4 e4 | f4 e4 f4 | d4 c4 d4 | B4 c4 d4 | %66
 c8 f4 | e8 a4 | g4 f4 e4 | f4 e4 d4 | e4 d4 c4 | d4 c4 B4 | c4 B4 A4 | B4 A4 G4 | A4 c4 d4 | %75
 f6 ed e4 | !fermata!f12 || x12 |[Q:1/4=90][Q:1/4=90][Q:1/4=90][Q:1/4=90] z16 | %79
 g2 fe d2 de ^f2 fg g2 f2 | g4 z4 z8 | f2 _ed c2 cd e2 ee d2 d2 | c2 c2 AdcB c2 Ac AdcB | %83
 c2 A2 z4 z8 | z2 g2 eagf g2 eg eagf | gf f4 e2 f8 | z16 | z16 | z16 | z16 | z16 | z16 | z16 | %93
 z16 | z2 ag ffgf e4 e2 ef | dded ^c2 d4 c2 d4 | z8 z4 z2 gf | eefe d2 c2 d4 c4 | z16 | z16 | %100
 z4 z2 g2 g2 g2 a4- | aggf g2 c'b aaba g2 f2 | g4 f4 z8 | z4 z2 a2 a2 a2 b4- | %104
 baag a2 fe dd_ed c2 B2 | c4 B4 z8 | z2 ag ffgf e2 e2 f4- | f4 e4 !fermata!f8 |] %108
V:2
 z12 | z8 | z8 x4 | z8 | z8 || z12 |[M:3/2] z12 | z12 | z12 | z12 | z12 | z12 || z8 x4 | z16 | %14
 z16 | z16 | z16 |[K:F][K:treble] z16 | z16 | z16 | FGAB G2 F2 z8 | %21
 cd/e/ fe d2 c2 z4 C/D/E/^F/ G/F/ F/E/4F/4 | %22
 G2 z2 D/E/F/G/ A/G/ G/F/4G/4 A>A G/A/F/G/ E>F E/F/D/E/ | CDEF GABc defg a>A G/A/F/G/ | %24
 E4- EEFG A3 G/F/ E2 D2 | E2 F4 E2 !fermata!F8 ||[M:3/2] x12 |[M:3/2] z12 | z12 | z12 | z12 | z12 | %32
 z12 | z12 | z12 | z12 |[M:3/2] z12 | z12 | z12 | z12 | z12 | z12 | z12 | z12 | z12 | %45
[M:3/2] z8 z4 | z8 z4 | z8 z4 | z8 z4 | z8 z4 | z8 z4 | z8 z4 | z8 z4 | z4 G4 c4 | A6 A2 A2 A2 | %55
 =B12 | c8 z4 | z4 A4 d4 | =B6 B2 B2 B2 | ^c4 =B4 c4 | d4 ^c4 d4 | =B4 A4 B4 | =c4 =B4 c4 | %63
 A4 G4 A4 | _B4 A4 B4 | G4 A4 B4 | A8 d4 | c8 f4 | e4 d4 c4 | d4 c4 B4 | c4 B4 A4 | B4 A4 G4 | %72
 A4 G4 F4 | G4 F4 E4 | F4 A4 B4 | c4 G8 | !fermata!A12 || x12 | z16 | z4 B2 AG A2 Ad c2 A2 | %80
 G4 z4 z8 | z4 A2 A=B c2 cc c2 B2 | c2 A2 FBAG A2 FA FBAG | A2 F2 z4 z8 | z2 e2 cfed e2 ce cfed | %85
 eagf g4 f8 | z16 | z16 | z16 | z16 | z16 | z16 | z16 | z16 | z8 z4 z2 ag | ffgf e2 d2 e4 d4 | %96
 z2 gf eefe d6 de | ccdc =B2 c4 B2 c4 | z16 | z16 | z2 d2 d2 d2 e4 f4- | feed e2 ga ffgf e2 f2- | %102
 f2 e2 f4 z8 | z2 f2 f2 f2 f8 | f4 z2 dc BBcB A2 B2- | B2 A2 B4 z8 | z8 z2 cB AABA | %107
 G2 C2 c4 !fermata!c8 |] %108
V:3
[K:F]"^Exultavit cor meum, SWV 258""^Heinrich Schütz\n (1585-1672)""^I Samuel 2:1-2" F6 A2 G4 | %1
w: Ex- ul- ta-|
 F2 A4 c2 B4 | A2 f4 d2 c4 |[M:2/2] B4 (FGAB | c=B BA/B/ cd/_e/ dc ||[M:3/2] d6 c2) _B4 | %6
w: vit, ex- ul- ta-|vit, ex- ul- ta-|vit, ex\- * * *||* ul- ta-|
[M:3/2] c2 B2 A4 G4 |!p! d2 c2 B4 c2 B2 | A4 G2!f! c4 B2 | A4 B2 A2 G4 | F4!p! c2 B2 A4 | %11
w: vit cor me- um,|ex- ul- ta- vit cor|me- um, ex- ul-|ta- vit cor me-|um, ex- ul- ta-|
 B2 A2 G4 F4 || x12 | z4 A4 (=BABc d4- | d4) ^c4 d4 z2 D2 | (EDE^F GFGA BABc dcd_e | A6) A2 G8 | %17
w: vit cor me- um||in Do\- * * * *|* mi- no, in|Do\- * * * * * * * * * * * * * * *|* mi- no,|
 z4 z2 C2 (DCDE FEFG | AGAB cBcd G6) G2 | F8 z8 | z16 | z16 | z16 | z16 | z16 | z16 || z8 x4 | %27
w: in Do\- * * * * * * *|* * * * * * * * * mi-|no,||||||||
[M:3/2] F4 A4 B4 | c8 d4 | G4 (A2 G2) (F2 E2) | D4 D4 G4 | E4 E4 c4 | (A6 Bc d4) | c4 c8 | B8 z4 | %35
w: Et ex- al-|ta- tum|est cor\- * nu *|me- um in|De- o, in|De\- * * *|o me-|o,|
 z4 c4 A4 | (d2 f2 B2 d2 c2 B2 | A2 c2 F2 A2 G2 F2 | E2 G2 C2 D2 E2 F2 | G2 A2 B2 c2 d2 _e2 | %40
w: di- la-|ta\- * * * * *||||
 d6) d2 c4 | B4 A8 | G8 z4 | z12 | z12 | z4 G4 c4 | A6 A2 A2 A2 | =B12 | c8 z4 | z4 F4 B4 | %50
w: * tum est|os me-|um|||su- per|i- ni- mi- cos|me-|os,|su- per|
 G6 G2 G2 G2 | A12 | B8 z4 | z12 | z12 | z12 |[M:3/2] z12 | z12 | z12 | z12 | z12 | z12 | z12 | %63
w: i- ni- mi- cos|me-|os.|||||||||||
 z12 | z12 | z12 | z12 |[M:3/2] z12 | z12 | z12 | z12 | z12 | z12 | z12 | z12 | z12 | z12 || %77
w: ||||||||||||||
 z8 x4 | z4 c2 BA G2 Gc c2 =B2 | c4 z4 z8 | B2 AG F2 FG A2 AF F2 E2 | F4 z4 z8 | z16 | %83
w: |Qui- a lae- ta- ta, lae- ta- ta|sum,|qui- a lae- ta- ta, lae- ta- ta, lae- ta- ta|sum||
 z2 c2 AdcB c2 AcAdcB | c16- | c8 A8 | z4 (F4 ^F4) G4 | A8 A8 | z2 G2 E2 c2 A2 d4 (c/B/A/G/) | %89
w: in sa- lu- ta- ri tu- o, in sa- lu- ta- ri|tu\-|* o.|Non * est|san- ctus,|non est, non est, non est * * *|
 ^F8 F4 (GA) (Bc) | A3 G G4 z2 FG A2 AB | c2 cc =B3 A A2 E^F G2 GA | =B3 B B6 B4 E2 | %93
w: san- ctus, ut * est *|Do- mi- nus, ne- que e- nim est|a- li- us e- xtra te, ne- que e- nim est|a- li- us e- xtra|
 ^F8 z2 =B2 B2 B2 | (^c4 d4- dcc=B) c4 | z8 z2 A2 A2 A2 | (=B4 c4- cBBA) B4 | z8 z2 G2 G2 G2 | %98
w: te, et non est|for\- * * * * * tis,|et non est|for\- * * * * * tis,|et non est|
 (A4 B4- BAAG) A4 | z2 dc BBcB A2 G2 A4 | G8 z8 | z16 | z2 cB AABA G2 F2 G4 | F4 z2 c2 c2 c2 (d4- | %104
w: for\- * * * * * tis,|si- cut De- us, si- cut De- us no-|ster,||si- cut De- us, si- cut De- us no-|ster, et non est for\-|
 dccB) c4 z8 | z2 f_e dded c2 B2 c4 | B2 cB AABA G4 F4 | G8 !fermata!F8 |] %108
w: * * * * tis,|si- cut De- us, si- cut De- us no-|ster, si- cut De- us, si- cut De- us|no- ster.|
V:4
[K:F] F,6 A,,2 C,4 | F,,2 F,4 A,2 G,4 | F,2 D,4 B,,2 F,4 |[M:2/2] B,,4 F,4 | E,2 D,2 C,4 || %5
w: * 6 *||||6 6 *|
[M:3/2] B,,6 A,,2 G,,4 |[M:3/2] C,4 D,4 G,,4 | B,,2 A,,2 G,,4 C,4 | D,4 G,,2!f! A,,4 G,,2 | %9
w: ||||
 F,,4 B,,4 C,4 | F,,4!p! A,,2 G,,2 F,,4 | B,,4 C,4 F,,4 || x12 | z4!mf! F,4 G,8 | %14
w: |||||
 A,4 A,,4 =B,,A,,B,,C, D,4- | D,4 ^C,4 D,4- D,4 | D,4 D,4 G,,4 G,,4 | A,,G,,A,,=B,, C,8 B,,4 | %18
w: 4 * * * * * *|* * 3 4|* 3 * *||
 C,4- C,4 C,4 C,4 | F,,8 F,2 A,,2 C,2 F,,2 | F,2 A,,2 C,2 F,,2 F,2 A,2 G,2 F,2 | %21
w: 3 4 * 3|* * 6 * *|* 6 * * * * * *|
 F,E,D,C, G,2 C,2 F,2 E, D, C,2 B,,A,, | G,,2 F,E, D,2 C,B,, A,,2 B,,-B,, C,4 | %23
w: * * * * * * * 6 6 * 6 6|* 6 6 * 6 6 * 6 5 *|
 C2 B,A, G,2 F,E, D,2 C,B,, A,,2 B,,2 | C,4- C,C,D,E, F,3 G, A,2 B,2 | C2 B,2 C4 !fermata!F,8 || %26
w: |||
[M:3/2] x12 |[M:3/2] F,8 G,4 | F,,4 A,,4 B,,4 | C,4- C,4 D,4 | =B,,8 B,,4 | C,6 _B,,2 A,,2 G,,2 | %32
w: |||5 6 *|||
 F,,8 B,,4 | _E,4 F,8 | B,,12 | F,12 | B,12 | F,12 | C,12 | G,,8 G,,4 | B,,8 C,4- | C,4 D,8 | %42
w: ||||||||||
 G,,4 G,,4 C,4 | A,,6 A,,2 A,,2 A,,2 | =B,,12 | C,8 E,4 | F,12 | G,12 | C,4 C,4 F,4 | %49
w: |||* 6||||
 D,6 D,2 D,2 D,2 | E,12 | F,12 | B,,12 | C,12 | F,12 | G,12 | C,12 | D,12 | G,12 | A,12 | D,12 | %61
w: * * 6 *||||||||||||
 G,12 | C,12 | F,12 | B,,12 | _E,8 B,,4 | F,4 E,4 D,4 | A,4 G,4 F,4 | C12 | B,12 | A,12 | G,12 | %72
w: |||||* 6 *|* 6 *|||||
 F,12 | B,,8 C,4 | F,,8 B,,4 | A,,4 C,8 | !fermata!F,,12 || x12 | %78
w: |||6 *|||
 F,2 E,D, C,2 C,D, E,2 E,E, F,2 G,2 | C,4 G,2 F,E, D,2 D, B,, C,2 D,2 | %80
w: * 6 * * * * * * * * *|* * * * * * 6 * *|
 G,,4 B,,2 A,,G,, F,,2 F,, A,, B,,2 C,2 | F,,4 F,2 _E,D, C,2 C,E, F,2 G,2 | C,2 F,4 B,,2 F,6 B,,2 | %83
w: * * 6 * * * 6 * *|* * 6 * * * * * *||
 F,6 B,,2 F,4- F,2 D,2 | C,6 F,,2 C,6 F,,2 | C,6- C,2 F,,8 | B,,6 C,2 D,4 _E,4 | D,8 D,6 D,2 | %88
w: * * * 6 *||3~~~~~4 3 *|||
 =B,,4 C,4 F,2- F,2 _E,4 | D,8 D,4 C,2 G,,2 | D,4 G,,4 D,4 F,4 | A,4 E,4 A,,4 E,4 | %92
w: 6 * 5 6 *|||* * * 6|
 G,2 G,,A,, =B,,2 B,,C, D,2 E,2 C,2- C,2 | =B,,2 =B,2 B,2 B,2 ^G,8 | A,4- A,4 A,4 A,4 | %95
w: * * * * * * 6 * 7 6||3 4 * 3|
 B,2 G,2 A,2 B,2 A,2- A,2 D,4 | G,4- G,4 G,4 G,4 | A,2 F,2 G,2 A,2 G,2- G,2 C,4 | %98
w: * 6 * * 4 3 *|3 4 * 3|* 6 * * 4 * *|
 F,4- F,4 F,4 F,4 | B,,4 _E,2 C,2 D,2 E,2 D,2- D,2 | G,,2 G,,2 G,,2 G,,2 C,4- C,4 | %101
w: 3 4 * 3|* * * * * 4 3|* * * * 3 4|
 C,4 C,2 C2 D2 B,2 C2 D2 | C2 C,2 D,2 B,,2 C,2 D,2 C,4 | F,,8 F,,4- F,,4 | %104
w: 4 3 * * 6 * *|4 * * 6 * * *|* 3 4|
 F,,4 F,,2[K:treble] F2 G2 _E2 F2 G2 | F2[K:bass] F,2 G,2 _E,2 F,2 G,2 F,4 | %106
w: 4 3 * * 6 * *|4 * * * * * *|
 B,,2 F,,4 B,,2 C,4- C,4 | C,4 C,4 !fermata!F,,8 |] %108
w: * * 6 3 4|* 3 *|

